images/icons/v2/error-outline-12.svg

<svg height="12" viewBox="0 0 12 12" width="12" xmlns="http://www.w3.org/2000/svg"><path d="m6 1a5 5 0 1 1 -5 5 5.006 5.006 0 0 1 5-5m0-1a6 6 0 1 0 6 6 6 6 0 0 0 -6-6zm-.5 7h1l.25-4.5h-1.5zm.5 1a.75.75 0 1 0 .75.75.75.75 0 0 0 -.75-.75z"/></svg>

<svg xmlns="http://www.w3.org/2000/svg" width="12" height="12" viewBox="0 0 12 12"><title>error-outline-12</title><path d="M6,1A5,5,0,1,1,1,6,5.006,5.006,0,0,1,6,1M6,0a6,6,0,1,0,6,6A6,6,0,0,0,6,0ZM5.5,7h1l.25-4.5H5.25ZM6,8a.75.75,0,1,0,.75.75A.75.75,0,0,0,6,8Z"/></svg>
